X:112
T: UND WER IM JANUAR GEBOREN IST
N: E1166
O: Europa, Mitteleuropa, Deutschland, Schleswig - Holstein
R: Trink -, Zech - Lied
M: 6/8
L: 1/16
K: G
D2 | G4G2G2A2B2 | B3AA2A2z2
c2 | B6B2z2
GB | d4d2d3cB2 | c4e2e2d2
c2 | B4B2B3AG2 | A3dd2d4
c2 | B4B2A3GA2 | G4e2d4
c2 | B4B2A3GA2 | G8z2

@@@ Tune index: 4796
